src/apps/scalable/tutanota-desktop.svg

<svg width="64" height="64" viewBox="0 0 64 64" fill="none" xmlns="http://www.w3.org/2000/svg" xmlns:xlink="http://www.w3.org/1999/xlink">
<g clip-path="url(#clip0)">
<rect x="1.55933" y="1.99902" width="60.882" height="62.001" fill="url(#pattern0)"/>
<path fill-rule="evenodd" clip-rule="evenodd" d="M17.002 3.96851H47C54.1808 3.96851 60.002 9.7897 60.002 16.9705V46.9685C60.002 52.3541 56.7276 56.9749 52.061 58.9487C56.0936 57.243 59.0867 53.5606 59.8254 49.1162C58.5948 44.7707 56.0725 40.6257 51.2281 38.1108C46.2631 35.5257 39.7273 34.1267 34.8481 33.0823C31.0425 32.2677 28.2447 31.6688 27.9859 30.8911C27.964 30.8144 27.9531 30.7377 27.9531 30.672C27.964 29.4559 31.7374 29.171 34.2093 29.0505C36.8234 28.9191 40.7828 28.5685 41.264 26.6841C41.2788 26.6249 41.2886 26.5657 41.2934 26.5065C41.2957 26.4781 41.2968 26.4496 41.2968 26.4212C41.3078 24.6683 36.8125 24 36.8125 24C36.8125 24 40.5203 24.6026 40.5093 26.1254C40.5093 26.1802 40.5093 26.224 40.4984 26.2788C40.2812 27.6387 36.5659 27.8432 33.9893 27.9851C33.4523 28.0146 32.9648 28.0415 32.5687 28.0755C32.2346 28.1041 31.8177 28.1259 31.3443 28.1505L31.3419 28.1507C28.56 28.2955 23.8298 28.5419 22.4843 30.8911C22.4078 31.0335 22.364 31.1759 22.364 31.3074C22.3595 32.3377 24.5611 33.2312 27.2092 34.306C31.0093 35.8483 35.7288 37.7639 36.1671 40.9921C36.189 41.1674 36.2 41.3536 36.2 41.5289C36.189 47.0834 24.3765 51.9915 9.91715 57.776L9.82593 57.8126C6.31491 55.4845 4 51.4968 4 46.9685V16.9705C4 9.7897 9.82119 3.96851 17.002 3.96851Z" fill="url(#paint0_linear)"/>
<path d="M59.8254 49.1162C58.5948 44.7707 56.0725 40.6257 51.2281 38.1108C46.2631 35.5257 39.7273 34.1267 34.8481 33.0823C31.0425 32.2677 28.2447 31.6688 27.9859 30.8911C27.964 30.8144 27.9531 30.7377 27.9531 30.672C27.964 29.4559 31.7374 29.171 34.2093 29.0505C36.8234 28.9191 40.7828 28.5685 41.264 26.6841C41.2788 26.6249 41.2886 26.5657 41.2934 26.5065C41.2957 26.4781 41.2968 26.4496 41.2968 26.4212C41.3078 24.6683 36.8125 24 36.8125 24C36.8125 24 40.5203 24.6026 40.5093 26.1254C40.5093 26.1802 40.5093 26.224 40.4984 26.2788C40.2812 27.6387 36.5659 27.8432 33.9893 27.9851C33.4523 28.0146 32.9648 28.0415 32.5687 28.0755C32.2346 28.1041 31.8176 28.1259 31.3441 28.1505L31.3419 28.1507C28.56 28.2955 23.8298 28.5419 22.4843 30.8911C22.4078 31.0335 22.364 31.1759 22.364 31.3074C22.3595 32.3377 24.5611 33.2312 27.2092 34.306C31.0093 35.8483 35.7288 37.7639 36.1671 40.9921C36.189 41.1674 36.2 41.3536 36.2 41.5289C36.189 47.0834 24.3765 51.9915 9.91715 57.776C9.88672 57.7882 9.85631 57.8004 9.82593 57.8126C11.8825 59.1762 14.3495 59.9705 17.002 59.9705H47C53.4492 59.9705 58.8017 55.275 59.8254 49.1162Z" fill="white"/>
</g>
<defs>
<pattern id="pattern0" patternContentUnits="objectBoundingBox" width="1" height="1">
<use xlink:href="#image0"/>
</pattern>
<linearGradient id="paint0_linear" x1="29.9998" y1="57.0001" x2="29.9998" y2="6.99973" gradientUnits="userSpaceOnUse">
<stop stop-color="#B81E31"/>
<stop offset="1" stop-color="#FF5C5C"/>
</linearGradient>
<clipPath id="clip0">
<rect width="64" height="64" fill="white"/>
</clipPath>
<image id="image0" xlink:href="data:image/png;base64,iVBORw0KGgoAAAANSUhEUgAAAPsAAAD7CAYAAACscuKmAAAABHNCSVQICAgIfAhkiAAAAAlwSFlz"/>
</defs>
</svg>

<svg width="64" height="64" fill="none" xmlns="http://www.w3.org/2000/svg" xmlns:xlink="http://www.w3.org/1999/xlink"><g clip-path="url(#a)"><path fill="url(#b)" d="M1.559 1.999h60.882V64H1.559z"/><path fill-rule="evenodd" clip-rule="evenodd" d="M17.002 3.969H47c7.18 0 13.002 5.82 13.002 13.002v29.997c0 5.386-3.274 10.007-7.941 11.98 4.033-1.705 7.026-5.387 7.764-9.832-1.23-4.345-3.753-8.49-8.597-11.005-4.965-2.585-11.5-3.984-16.38-5.029-3.805-.814-6.603-1.413-6.862-2.19a.819.819 0 0 1-.033-.22c.011-1.216 3.784-1.501 6.256-1.622 2.614-.13 6.574-.482 7.055-2.366a1.097 1.097 0 0 0 .033-.263c.01-1.753-4.484-2.421-4.484-2.421s3.707.603 3.696 2.125c0 .055 0 .099-.01.154-.218 1.36-3.933 1.564-6.51 1.706-.537.03-1.024.056-1.42.09-.334.03-.751.05-1.225.076h-.002c-2.782.145-7.512.39-8.858 2.74a.899.899 0 0 0-.12.416c-.005 1.03 2.197 1.924 4.845 2.999 3.8 1.542 8.52 3.458 8.958 6.686.022.175.033.362.033.537-.011 5.554-11.824 10.462-26.283 16.247l-.091.037A12.99 12.99 0 0 1 4 46.968V16.97C4 9.79 9.821 3.97 17.002 3.97Z" fill="url(#c)"/><path d="M59.825 49.116c-1.23-4.345-3.753-8.49-8.597-11.005-4.965-2.585-11.5-3.984-16.38-5.029-3.805-.814-6.603-1.413-6.862-2.19a.819.819 0 0 1-.033-.22c.011-1.216 3.784-1.501 6.256-1.622 2.614-.13 6.574-.482 7.055-2.366a1.097 1.097 0 0 0 .033-.263c.01-1.753-4.484-2.421-4.484-2.421s3.707.603 3.696 2.125c0 .055 0 .099-.01.154-.218 1.36-3.933 1.564-6.51 1.706-.537.03-1.024.056-1.42.09-.334.03-.751.05-1.225.076h-.002c-2.782.145-7.512.39-8.858 2.74a.899.899 0 0 0-.12.416c-.005 1.03 2.197 1.924 4.845 2.999 3.8 1.542 8.52 3.458 8.958 6.686.022.175.033.362.033.537-.011 5.554-11.824 10.462-26.283 16.247l-.091.037a12.942 12.942 0 0 0 7.176 2.157H47c6.45 0 11.802-4.695 12.825-10.854Z" fill="#fff"/></g><defs><linearGradient id="c" x1="30" y1="57" x2="30" y2="7" gradientUnits="userSpaceOnUse"><stop stop-color="#B81E31"/><stop offset="1" stop-color="#FF5C5C"/></linearGradient><clipPath id="a"><path fill="#fff" d="M0 0h64v64H0z"/></clipPath><pattern id="b" patternContentUnits="objectBoundingBox" width="1" height="1"><use xlink:href="#d"/></pattern><image id="d" xlink:href="data:image/png;base64,iVBORw0KGgoAAAANSUhEUgAAAPsAAAD7CAYAAACscuKmAAAABHNCSVQICAgIfAhkiAAAAAlwSFlz"/></defs></svg>
